X: 4
T: The Rose In The Heather
R: jig
M: 6/8
L: 1/8
K: Dmaj
DEF EDB,|DFA BAF|AB/c/d e2g|fdB AFE|F3 ~E3|DFA ~B3|B/c/dB AFE|FDD D2E|FAF EDB,|DFA ~B3|AB/c/d e2g|fdB AFE|FF/F/F EE/E/E|DFA ~B3|BdB AFE|FDD D2e||fdB AB/c/d|faa afd|g3 fed|Bcd e2g|fdB AB/c/d|faa ~a3|bag fae|fdd d2e|fAA eAA|dfa afd|~g3 fed|Bcd e2g|fdB AB/c/d|faa ~a3|bag fge|fdB AFE||


Tune 447	Setting 13311

